X:1
T:Logie O'Buchan
C:Traditional
M:3/4
L:1/4
Q:1/4=120
K:C
G/2F/2 | E3/2F/2G | G e d | c A/2G/2A | A2 G/2F/2 | E3/2F/2G | G c d | e/2d/2 c2 | c3 |]
